src/assets/tokens/APW.svg

<svg width="174" height="174" viewBox="0 0 174 174" fill="none" xmlns="http://www.w3.org/2000/svg">
    <path d="M87 174C135.049 174 174 135.049 174 87C174 38.9512 135.049 0 87 0C38.9511 0 0 38.9512 0 87C0 135.049 38.9511 174 87 174Z"
          fill="#00F99B"/>
    <path d="M112.854 53.5391L90.3244 53.5391C72.3429 53.5391 57.7659 68.1159 57.7657 86.0974L57.7656 94.6408C57.7656 94.8602 57.9435 95.038 58.1629 95.038L62.7059 95.0381C62.9253 95.0381 63.1031 94.8602 63.1031 94.6408L63.1032 86.0975C63.1034 71.0637 75.2907 58.8766 90.3244 58.8766L120.731 58.8766C121.035 58.8766 121.225 58.5492 121.063 58.2917C119.333 55.5378 116.742 53.5414 112.861 53.5391C112.858 53.5391 112.856 53.5391 112.854 53.5391Z"
          fill="#0C0C15"/>
    <path d="M123.957 66.6772C123.925 66.4874 123.76 66.3494 123.568 66.3494L90.3254 66.3494C79.1237 66.3494 70.043 75.4301 70.043 86.6318L70.0429 94.6411C70.0429 94.8605 70.2208 95.0384 70.4402 95.0384L73.7915 95.0384C74.669 95.0384 75.3804 94.327 75.3804 93.4494L75.3804 86.6318C75.3805 78.378 82.0715 71.6869 90.3254 71.6869L124.07 71.6869C124.297 71.6869 124.478 71.4971 124.465 71.2706C124.391 69.9818 124.246 68.383 123.957 66.6772Z"
          fill="#0C0C15"/>
    <path d="M62.2274 120.462L84.7567 120.462C102.738 120.462 117.315 105.885 117.315 87.9039L117.316 79.3605C117.316 79.1411 117.138 78.9633 116.918 78.9633L112.375 78.9632C112.156 78.9632 111.978 79.1411 111.978 79.3605L111.978 87.9038C111.978 102.938 99.7905 115.125 84.7567 115.125H54.35C54.0458 115.125 53.8558 115.452 54.0177 115.71C55.748 118.463 58.3395 120.46 62.2204 120.462C62.2228 120.462 62.2251 120.462 62.2274 120.462Z"
          fill="#0C0C15"/>
    <path d="M51.1238 107.324C51.1559 107.514 51.3209 107.652 51.5134 107.652L84.7557 107.652C95.9574 107.652 105.038 98.5712 105.038 87.3695L105.038 79.3601C105.038 79.1407 104.86 78.9629 104.641 78.9629L101.29 78.9629C100.412 78.9629 99.7007 79.6743 99.7007 80.5519L99.7007 87.3695C99.7007 95.6233 93.0096 102.314 84.7557 102.314L51.0108 102.314C50.7839 102.314 50.6029 102.504 50.6159 102.731C50.6897 104.019 50.8355 105.618 51.1238 107.324Z"
          fill="#0C0C15"/>
</svg>

<svg fill="none" height="174" width="174" xmlns="http://www.w3.org/2000/svg"><path d="M87 174c48.049 0 87-38.951 87-87S135.049 0 87 0 0 38.951 0 87s38.951 87 87 87z" fill="#00f99b"/><g fill="#0c0c15"><path d="M112.854 53.54h-22.53c-17.981 0-32.558 14.576-32.558 32.557v8.544c0 .22.178.397.397.397h4.543c.22 0 .397-.178.397-.397v-8.544c0-15.033 12.188-27.22 27.221-27.22h30.407a.383.383 0 0 0 .332-.585c-1.73-2.754-4.321-4.75-8.202-4.753h-.007z"/><path d="M123.957 66.677a.394.394 0 0 0-.389-.328H90.325c-11.201 0-20.282 9.081-20.282 20.283v8.01c0 .219.178.396.397.396h3.352c.877 0 1.588-.711 1.588-1.589v-6.817c0-8.254 6.692-14.945 14.945-14.945h33.745c.227 0 .408-.19.395-.416a42.229 42.229 0 0 0-.508-4.594zm-61.73 53.785h22.53c17.981 0 32.558-14.577 32.558-32.558l.001-8.543a.397.397 0 0 0-.398-.398h-4.543a.397.397 0 0 0-.397.398v8.543c0 15.034-12.188 27.221-27.221 27.221H54.35a.383.383 0 0 0-.332.585c1.73 2.753 4.322 4.75 8.202 4.752z"/><path d="M51.124 107.324c.032.19.197.328.39.328h33.242c11.201 0 20.282-9.08 20.282-20.282v-8.01a.397.397 0 0 0-.397-.397h-3.351a1.59 1.59 0 0 0-1.59 1.589v6.817c0 8.254-6.69 14.945-14.944 14.945H51.01a.395.395 0 0 0-.395.417 42.5 42.5 0 0 0 .508 4.593z"/></g></svg>
